small/extra/apps/standard/any_do.svg

<?xml version="1.0" encoding="UTF-8" standalone="no"?>
<!-- Created with Inkscape (http://www.inkscape.org/) -->

<svg
   xmlns:dc="http://purl.org/dc/elements/1.1/"
   xmlns:cc="http://creativecommons.org/ns#"
   xmlns:rdf="http://www.w3.org/1999/02/22-rdf-syntax-ns#"
   xmlns:svg="http://www.w3.org/2000/svg"
   xmlns="http://www.w3.org/2000/svg"
   xmlns:inkscape="http://www.inkscape.org/namespaces/inkscape"
   version="1.1"
   width="100%"
   height="100%"
   viewBox="0 0 512 512"
   id="svg2">
  <metadata
     id="metadata10">
    <rdf:RDF>
      <cc:Work
         rdf:about="">
        <dc:format>image/svg+xml</dc:format>
        <dc:type
           rdf:resource="http://purl.org/dc/dcmitype/StillImage" />
        <dc:title />
      </cc:Work>
    </rdf:RDF>
  </metadata>
  <defs
     id="defs8">
    <clipPath
       id="clipPath3249">
      <path
         d="M 26,0 C 11.602648,0 0,11.602648 0,26 l 0,460 c 0,14.39735 11.602648,26 26,26 l 460,0 c 14.39735,0 26,-11.60265 26,-26 L 512,26 C 512,11.602648 500.39735,0 486,0 L 26,0 z"
         inkscape:connector-curvature="0"
         id="path3251"
         style="fill:#009cce;fill-opacity:1;stroke:none" />
    </clipPath>
  </defs>
  <path
     d="M 26,0 C 11.602648,0 0,11.602648 0,26 l 0,460 c 0,14.39735 11.602648,26 26,26 l 460,0 c 14.39735,0 26,-11.60265 26,-26 L 512,26 C 512,11.602648 500.39735,0 486,0 L 26,0 z"
     inkscape:connector-curvature="0"
     id="rect2986"
     style="fill:#009cce;fill-opacity:1;stroke:none" />
  <text
     x="49.582005"
     y="185.17551"
     id="text20"
     style="font-size:129.22999573px;line-height:125%;letter-spacing:0;word-spacing:0;font-family:Gentium Book Basic">
    <tspan
       x="49.582005"
       y="185.17551"
       id="tspan22" />
  </text>
  <text
     x="209.43672"
     y="393.92813"
     transform="scale(4.0128205,0.24920128)"
     id="text24"
     style="font-size:46.95375824px;text-anchor:middle;font-family:Arial" />
  <text
     x="630.85205"
     y="105.1755"
     id="text26"
     style="font-size:129.22999573px;line-height:125%;letter-spacing:0;word-spacing:0;font-family:Gentium Book Basic">
    <tspan
       x="630.85205"
       y="105.1755"
       id="tspan28" />
  </text>
  <text
     x="354.28601"
     y="72.889977"
     transform="scale(4.0128205,0.24920128)"
     id="text30"
     style="font-size:46.95375824px;text-anchor:middle;font-family:Arial" />
  <text
     x="-440.728"
     y="-76.08448"
     id="text32"
     style="font-size:129.22999573px;line-height:125%;letter-spacing:0;word-spacing:0;font-family:Gentium Book Basic">
    <tspan
       x="-440.728"
       y="-76.08448"
       id="tspan34" />
  </text>
  <text
     x="87.24736"
     y="-654.45642"
     transform="scale(4.0128205,0.24920128)"
     id="text36"
     style="font-size:46.95375824px;text-anchor:middle;font-family:Arial" />
  <text
     x="657.32202"
     y="-292.55447"
     id="text38"
     style="font-size:129.22999573px;line-height:125%;letter-spacing:0;word-spacing:0;font-family:Gentium Book Basic">
    <tspan
       x="657.32202"
       y="-292.55447"
       id="tspan40" />
  </text>
  <text
     x="360.88599"
     y="-1523.132"
     transform="scale(4.0128205,0.24920128)"
     id="text42"
     style="font-size:46.95375824px;text-anchor:middle;font-family:Arial" />
  <text
     x="1238.592"
     y="-372.55447"
     id="text44"
     style="font-size:129.22999573px;line-height:125%;letter-spacing:0;word-spacing:0;font-family:Gentium Book Basic">
    <tspan
       x="1238.592"
       y="-372.55447"
       id="tspan46" />
  </text>
  <text
     x="505.73523"
     y="-1844.1603"
     transform="scale(4.0128205,0.24920128)"
     id="text48"
     style="font-size:46.95375824px;text-anchor:middle;font-family:Arial" />
  <text
     x="849.47205"
     y="-844.95447"
     id="text50"
     style="font-size:129.22999573px;line-height:125%;letter-spacing:0;word-spacing:0;font-family:Gentium Book Basic">
    <tspan
       x="849.47205"
       y="-844.95447"
       id="tspan52" />
  </text>
  <text
     x="408.76569"
     y="-3739.8108"
     transform="scale(4.0128205,0.24920128)"
     id="text54"
     style="font-size:46.95375824px;text-anchor:middle;font-family:Arial" />
  <text
     x="1430.7321"
     y="-924.96448"
     id="text56"
     style="font-size:129.22999573px;line-height:125%;letter-spacing:0;word-spacing:0;font-family:Gentium Book Basic">
    <tspan
       x="1430.7321"
       y="-924.96448"
       id="tspan58" />
  </text>
  <text
     x="553.61499"
     y="-4060.8491"
     transform="scale(4.0128205,0.24920128)"
     id="text60"
     style="font-size:46.95375824px;text-anchor:middle;font-family:Arial" />
  <text
     x="-402.06802"
     y="489.75558"
     id="text62"
     style="font-size:208.33000183px;line-height:125%;letter-spacing:0;word-spacing:0;font-family:Gentium Book Basic">
    <tspan
       x="-402.06802"
       y="489.75558"
       id="tspan64" />
  </text>
  <g
     clip-path="url(#clipPath3249)"
     id="g3161"
     style="opacity:0.25;fill:#000000;fill-opacity:1;stroke:none">
    <path
       d="M 384.09966,41 214.96264,333.98359 603.87137,722.89232 773.00839,429.90873 z"
       inkscape:connector-curvature="0"
       id="path3163"
       style="fill:#000000" />
    <path
       d="M 214.96264,333.98359 91.143295,262.5169 480.05202,651.42563 603.87137,722.89232 z"
       inkscape:connector-curvature="0"
       id="path3165"
       style="fill:#000000" />
    <path
       d="m 91.143295,262.5169 -50.14387,86.87242 388.908725,388.90873 50.14387,-86.87242 z"
       inkscape:connector-curvature="0"
       id="path3167"
       style="fill:#000000" />
    <path
       d="M 40.999425,349.38932 251.63674,471 640.54547,859.90873 429.90815,738.29805 z"
       inkscape:connector-curvature="0"
       id="path3169"
       style="fill:#000000" />
    <path
       d="m 251.63674,471 0.0278,-0.0278 388.90873,388.90873 -0.0278,0.0278 z"
       inkscape:connector-curvature="0"
       id="path3171"
       style="fill:#000000" />
    <path
       d="m 251.66454,470.9722 0.0278,0.0278 388.90873,388.90873 -0.0278,-0.0278 z"
       inkscape:connector-curvature="0"
       id="path3173"
       style="fill:#000000" />
    <path
       d="M 251.69234,471 471.00058,91.171229 859.90931,480.07996 640.60107,859.90873 z"
       inkscape:connector-curvature="0"
       id="path3175"
       style="fill:#000000" />
    <path
       d="M 471.00058,91.171229 384.10079,41 l 388.90873,388.90873 86.89979,50.17123 z"
       inkscape:connector-curvature="0"
       id="path3177"
       style="fill:#000000" />
  </g>
  <path
     d="M 384.09966,41 214.96264,333.98359 91.143295,262.5169 40.999425,349.38932 251.63674,471 251.66454,470.9722 251.69234,471 471.00058,91.171229 384.10079,41 z"
     inkscape:connector-curvature="0"
     id="rect4131"
     style="fill:#ffffff;fill-opacity:1;stroke:none" />
</svg>

<?xml version="1.0" encoding="UTF-8" standalone="no"?>
<!-- Created with Inkscape (http://www.inkscape.org/) -->
<svg id="svg2" xmlns:rdf="http://www.w3.org/1999/02/22-rdf-syntax-ns#" xmlns="http://www.w3.org/2000/svg" height="100%" width="100%" version="1.1" xmlns:cc="http://creativecommons.org/ns#" viewBox="0 0 512 512" xmlns:dc="http://purl.org/dc/elements/1.1/">
 <metadata id="metadata10">
  <rdf:RDF>
   <cc:Work rdf:about="">
    <dc:format>image/svg+xml</dc:format>
    <dc:type rdf:resource="http://purl.org/dc/dcmitype/StillImage"/>
    <dc:title/>
   </cc:Work>
  </rdf:RDF>
 </metadata>
 <defs id="defs8">
  <clipPath id="clipPath3249">
   <path id="path3251" fill="#009cce" d="m26 0c-14.397 0-26 11.603-26 26v460c0 14.397 11.603 26 26 26h460c14.397 0 26-11.603 26-26v-460c0-14.397-11.6-26-26-26h-460z"/>
  </clipPath>
 </defs>
 <path id="rect2986" fill="#009cce" d="m26 0c-14.397 0-26 11.603-26 26v460c0 14.397 11.603 26 26 26h460c14.397 0 26-11.603 26-26v-460c0-14.397-11.6-26-26-26h-460z"/>
 <text id="text20" style="word-spacing:0;letter-spacing:0" font-size="129.23px" line-height="125%" y="185.17551" x="49.582005" font-family="Gentium Book Basic">
  <tspan id="tspan22" y="185.17551" x="49.582005"/>
 </text>
 <text id="text24" style="text-anchor:middle" transform="scale(4.0128 .24920)" font-size="46.954px" y="393.92813" x="209.43672" font-family="Arial"/>
 <text id="text26" style="word-spacing:0;letter-spacing:0" font-size="129.23px" line-height="125%" y="105.1755" x="630.85205" font-family="Gentium Book Basic">
  <tspan id="tspan28" y="105.1755" x="630.85205"/>
 </text>
 <text id="text30" style="text-anchor:middle" transform="scale(4.0128 .24920)" font-size="46.954px" y="72.889977" x="354.28601" font-family="Arial"/>
 <text id="text32" style="word-spacing:0;letter-spacing:0" font-size="129.23px" line-height="125%" y="-76.08448" x="-440.728" font-family="Gentium Book Basic">
  <tspan id="tspan34" y="-76.08448" x="-440.728"/>
 </text>
 <text id="text36" style="text-anchor:middle" transform="scale(4.0128 .24920)" font-size="46.954px" y="-654.45642" x="87.24736" font-family="Arial"/>
 <text id="text38" style="word-spacing:0;letter-spacing:0" font-size="129.23px" line-height="125%" y="-292.55447" x="657.32202" font-family="Gentium Book Basic">
  <tspan id="tspan40" y="-292.55447" x="657.32202"/>
 </text>
 <text id="text42" style="text-anchor:middle" transform="scale(4.0128 .24920)" font-size="46.954px" y="-1523.132" x="360.88599" font-family="Arial"/>
 <text id="text44" style="word-spacing:0;letter-spacing:0" font-size="129.23px" line-height="125%" y="-372.55447" x="1238.592" font-family="Gentium Book Basic">
  <tspan id="tspan46" y="-372.55447" x="1238.592"/>
 </text>
 <text id="text48" style="text-anchor:middle" transform="scale(4.0128 .24920)" font-size="46.954px" y="-1844.1603" x="505.73523" font-family="Arial"/>
 <text id="text50" style="word-spacing:0;letter-spacing:0" font-size="129.23px" line-height="125%" y="-844.95447" x="849.47205" font-family="Gentium Book Basic">
  <tspan id="tspan52" y="-844.95447" x="849.47205"/>
 </text>
 <text id="text54" style="text-anchor:middle" transform="scale(4.0128 .24920)" font-size="46.954px" y="-3739.8108" x="408.76569" font-family="Arial"/>
 <text id="text56" style="word-spacing:0;letter-spacing:0" font-size="129.23px" line-height="125%" y="-924.96448" x="1430.7321" font-family="Gentium Book Basic">
  <tspan id="tspan58" y="-924.96448" x="1430.7321"/>
 </text>
 <text id="text60" style="text-anchor:middle" transform="scale(4.0128 .24920)" font-size="46.954px" y="-4060.8491" x="553.61499" font-family="Arial"/>
 <text id="text62" style="word-spacing:0;letter-spacing:0" font-size="208.33px" line-height="125%" y="489.75558" x="-402.06802" font-family="Gentium Book Basic">
  <tspan id="tspan64" y="489.75558" x="-402.06802"/>
 </text>
 <g id="g3161" opacity=".25" clip-path="url(#clipPath3249)">
  <path id="path3163" d="m384.1 41-169.14 292.98 388.91 388.91 169.14-292.98z"/>
  <path id="path3165" d="m214.96 333.98-123.82-71.46 388.91 388.91 123.82 71.46z"/>
  <path id="path3167" d="m91.143 262.52-50.144 86.872 388.91 388.91 50.144-86.872z"/>
  <path id="path3169" d="m40.999 349.39 210.64 121.61 388.91 388.91-210.64-121.61z"/>
  <path id="path3171" d="m251.64 471 0.0278-0.0278 388.91 388.91-0.0278 0.0278z"/>
  <path id="path3173" d="m251.66 470.97 0.0278 0.0278 388.91 388.91-0.0278-0.0278z"/>
  <path id="path3175" d="m251.69 471 219.31-379.83 388.91 388.91-219.31 379.83z"/>
  <path id="path3177" d="m471 91.171-86.9-50.171l388.91 388.91 86.9 50.171z"/>
 </g>
 <path id="rect4131" fill="#fff" d="m384.1 41-169.14 292.98-123.82-71.46-50.141 86.87 210.64 121.61 0.02-0.03 0.03 0.03 219.31-379.83-86.9-50.17z"/>
</svg>
